!!!OTL: Die Geburt im Grabe
!!!OTL-incipit:Eine Landmannsfrau ging schwanger,
!!!ARE: Europa, Mitteleuropa, Deutschland (), Brandenburg, Luebben, Schoenwalde
!!!YOR: 5, S. 224
!!    ????
!!!SCT: Q0109B
!!!YEM: Copyright 1995, estate of Helmut Schaffrath.
**kern
*ICvox
!! Irregular meter.
*MX
*k[f#]
*G:
!LO:TX:a:t=E 16766
{16gL
16gJ
=1
4dd
8dd
4cc
8a
=2
8a
4g
4r}
{16bL
16bJ
=3
4dd
8b
(8bL
8dd)
8ccJ
=4
8cc
4b
4r}
{8g
=5
8eeL
8eeJ
8eeL
8eeJ
=6
8g/L
8ddJ
8r}
{8gg
=7
(8ddL
8b)
8ddJ
(8ccL
8b)
8aJ
=8
8aL
8gJ
8r
4r}
==
!!!AGN: Ballade, Schein - Tod, Geburt, Grab, Auferstehen; Zeitungs - Lied
!! Andere Aufzeichnung (Variante) von Q0109A.
!!!ONB: ESAC (Essen Associative Code) Database: BALLADE
!!!AMT: irregular
!!!AIN: vox
!!!EED: Helmut Schaffrath
!!!EEV: 1.0
!!!source: Deutsche Volkslieder mit ihren Melodien Balladen. Herausgegeben vom Deutschen Volksliedarchiv. Fünfter Teil. Freiburg/Breisgau 1965.
!!!page: 224
!!!ENC: Anna Maria Matuszewska
!!!EEV: 2025/03/05
*-
